assets/favicons/icon.svg

<svg width="85" height="85" viewBox="0 0 85 85" fill="none" xmlns="http://www.w3.org/2000/svg">
	<rect width="85" height="85" fill="#4A148C"/>
	<path d="M7.91321 53.3458L6.43213 46.3082L32.0977 23.8763L33.6072 31.0492L13.8149 48.1465L13.9289 48.6878L38.9192 56.2897L40.443 63.5303L7.91321 53.3458Z M50.4107 53.942L70.203 36.8447L70.0891 36.3034L45.0988 28.7014L43.575 21.4608L76.1048 31.6454L77.5858 38.6829L51.9203 61.1149L50.4107 53.942Z" fill="#ffffff"/>
</svg>

<svg width="85" height="85" fill="none" xmlns="http://www.w3.org/2000/svg"><path fill="#4A148C" d="M0 0h85v85H0z"/><path d="M7.913 53.346l-1.48-7.038 25.665-22.432 1.51 7.173-19.793 17.098.114.54 24.99 7.603 1.524 7.24-32.53-10.184zm42.498.596l19.792-17.097-.114-.542-24.99-7.602-1.524-7.24 32.53 10.184 1.48 7.038L51.92 61.115l-1.51-7.173z" fill="#fff"/></svg>
